build/img/icon-menu.svg

<svg viewBox="0 0 25 18" xmlns="http://www.w3.org/2000/svg"><path fill-rule="evenodd" clip-rule="evenodd" d="M25 2H0V0h25v2zm0 8H0V8h25v2zm0 8H0v-2h25v2z"/></svg>

<svg viewBox="0 0 25 18" xmlns="http://www.w3.org/2000/svg">
<path fill-rule="evenodd" clip-rule="evenodd" d="M25 2H0V0H25V2ZM25 10H0V8H25V10ZM25 18H0V16H25V18Z"/>
</svg>
